_inc/logos/turrican.svg

<!-- Created by ERK --><svg xmlns="http://www.w3.org/2000/svg" xmlns:xlink="http://www.w3.org/1999/xlink" viewBox="0 0 1602 369"><defs><linearGradient id="a"><stop offset="0" style="stop-color:#ff7122;stop-opacity:1"/><stop offset="1" style="stop-color:#fef53a;stop-opacity:1"/></linearGradient><linearGradient xlink:href="#a" id="b" x1="838.825" x2="838.825" y1="100.729" y2="343.019" gradientUnits="userSpaceOnUse"/></defs><g fill="#ff7113" style="fill-opacity:1;fill:url(#b)"><path d="M0 0h275.81q19.33 1.14 38.76.94a.44.43 89.4 0 1 .44.44q-.13 41.25.49 82.56c.82 54.68.49 109.38.52 164.08 0 6.21.43 14.64 2.4 20.2 2.9 8.15 9.68 17.29 18.59 19.23q13.15 2.88 27.48 1.7C388.01 287.21 393 268.12 393 248c-.01-19.93.61-39.84.89-59.75q.84-60.32 2.14-120.63c.03-1.55-.58-2.99 1.78-3.03q48.44-.91 96.87-.29c27.49.36 57.1 6.2 77.13 26.64 13.34 13.62 23.18 27.72 24.7 47.3q1.49 19.15.42 38.33c-1.71 30.47-19.85 49.15-45.41 63.34a.5.49-33.1 0 0-.16.73l79.13 107.38a1.03 1.03 0 0 1-.78 1.64c-30.25 1.2-60.93.34-91.26.34a1.21 1.19 72.6 0 1-.99-.53l-63.9-94.21a.41.4 30.3 0 0-.74.19q-.86 10.7-2.07 21.27-2.87 25.22-16.32 46.34c-8.69 13.65-22.72 21.83-36.93 29.48-10.09 5.44-19.4 8.33-30.25 9.2-21.9 1.74-45.13 2.38-69.13-.91-19.45-2.67-35.81-9.77-50.41-22.67-11.03-9.74-18.32-21.84-24.46-35.44q-9.2-20.37-8.56-41.77.28-9.28.28-9.4.37-90.26-.72-180.61a.96.95-.3 0 0-.96-.94h-79.04a2.25 2.25 0 0 0-2.25 2.25V358.5a.5.5 0 0 1-.5.5h-81a.5.5 0 0 1-.5-.5V70.45a.46.45 0 0 0-.46-.45L0 69.74zm515.56 185.56c8.12-10.78 9.45-24.49 6.15-37.25-4.91-18.97-29.87-15.46-44.03-15.27a.69.69 0 0 0-.68.69v57.01a1.14 1.13-89 0 0 1.09 1.14q12.99.51 25.84-.55c5.46-.45 8.49-1.59 11.63-5.77" style="fill-opacity:1;fill:url(#b)"/><path d="M1602 64.49v284.82l-73.44.13a1.43 1.43 0 0 1-.89-.31q-1.61-1.28-2.38-2.42-57.14-84.6-114.01-168.89a.52.51-61.5 0 0-.94.28c-.29 11.76.14 26.18.14 35.21q.05 67.15.01 134a2.21 2.2 0 0 1-2.21 2.2l-74.04-.03a2.24 2.24 0 0 1-2.24-2.24V289.5a.5.5 0 0 0-.5-.5h-109.47a1.36 1.36 0 0 0-.84.29q-1.04.8-1.52 1.38c-12.84 15.36-25.53 31.24-40.56 44.53-13.41 11.84-31.39 20.29-47.83 27.05-9.99 4.12-22.4 5.6-33.09 6.75h-25.75c-36.35-4.52-69.55-21.86-89.26-53.47-18.36-29.42-27.71-61.91-29.18-96.44-1.5-35.12 5.78-74.11 27.33-102.76 17.68-23.51 42.91-43.77 71.6-54.15q1.16-.42 2-.16a1.65 1.65 0 0 0 .94 0c17.43-5.28 34.97-6.05 53.06-6.16q14.69-.08 28.5 4.35c7.23 2.32 14.89 6.54 22.16 10.26a1.01 1.01 0 0 1 .55.9l.51 82.42a1.28 1.28 0 0 1-2.12.98q-13.6-11.94-29.32-20.75c-7.79-4.37-20.16-4.81-30.95-4.45-58.25 1.93-71.23 65.19-60.53 110.2 4.49 18.92 28.35 41.08 46.55 46.77 29.64 9.28 53.34-15.13 71.34-34.92 24.24-26.65 46.07-55.52 67.72-84.29q38.6-51.28 77.1-102.65c1.48-1.98 4.09-.93 5.71-.93h105.73a.96.95-16.3 0 1 .8.43l113.37 171.27a.51.51 0 0 0 .94-.28c.02-21.33-.26-42.78.25-64.16q1.27-53.13.62-106.41a.8.79-.4 0 1 .8-.8zm-270.7 76.39q-35.48 48.14-70.78 96.57-.4.55.28.55h70.63a.76.76 0 0 0 .76-.75l.6-96.79a.52.51-9.5 0 0-.69-.49c-.66.25-.48.47-.8.91" style="fill-opacity:1;fill:url(#b)"/><path d="M711.8 252.46a1.07 1.01 84.4 0 0-.8 1.04v94.72a1.28 1.28 0 0 1-1.28 1.28h-71.19a1.53 1.53 0 0 1-1.53-1.53V63.46a.46.45 90 0 1 .45-.46q40.86-.01 81.79 0c16.47.01 30.34.71 45.19 3.33 21.93 3.88 39.09 12.89 53.38 30.88 10.28 12.93 12.95 24.07 14.36 41.16q1.68 20.45-1.1 40.79c-1.83 13.38-5.19 21.33-12.88 31.78-8.16 11.11-19.06 21.25-32.46 25.5a.51.5-26.2 0 0-.26.76l73.89 110.22q1.39 2.07-1.11 2.07-41.29.02-84 0c-1.02 0-2.11-1.05-2.7-2-5.08-8.1-59.38-95.11-59.75-95.03m26.75-61.93c10.51-1.84 18.18-9.7 19.96-20.28 2.39-14.23.66-31.67-14.05-38.52-8.41-3.92-22.92-3.02-32.91-2.6a.58.57 89 0 0-.55.58v61.01a1.02 1.01 2.1 0 0 .94 1.01q13.44 1.1 26.61-1.2" style="fill-opacity:1;fill:url(#b)"/><path d="m940.76 349.49-75.48.02a1.29 1.28-90 0 1-1.28-1.29V63.5a.5.5 0 0 1 .5-.5h76.05a.45.45 0 0 1 .45.45v178.06q0 9.31.23 19.98.95 43.5.77 86.76a1.24 1.24 0 0 1-1.24 1.24" style="fill-opacity:1;fill:url(#b)"/></g></svg>

<?xml version="1.0" encoding="UTF-8" standalone="no"?>
<svg
   version="1.1"
   viewBox="0 0 1602 369"
   id="svg12"
   sodipodi:docname="turrican.svg"
   inkscape:version="1.1.2 (0a00cf5339, 2022-02-04)"
   xmlns:inkscape="http://www.inkscape.org/namespaces/inkscape"
   xmlns:sodipodi="http://sodipodi.sourceforge.net/DTD/sodipodi-0.dtd"
   xmlns:xlink="http://www.w3.org/1999/xlink"
   xmlns="http://www.w3.org/2000/svg"
   xmlns:svg="http://www.w3.org/2000/svg">
  <defs
     id="defs16">
    <linearGradient
       inkscape:collect="always"
       id="linearGradient849">
      <stop
         style="stop-color:#ff7122;stop-opacity:1"
         offset="0"
         id="stop845" />
      <stop
         style="stop-color:#fef53a;stop-opacity:1"
         offset="1"
         id="stop847" />
    </linearGradient>
    <linearGradient
       inkscape:collect="always"
       xlink:href="#linearGradient849"
       id="linearGradient851"
       x1="838.82477"
       y1="100.72942"
       x2="838.82477"
       y2="343.01913"
       gradientUnits="userSpaceOnUse" />
  </defs>
  <sodipodi:namedview
     id="namedview14"
     pagecolor="#ffffff"
     bordercolor="#666666"
     borderopacity="1.0"
     inkscape:pageshadow="2"
     inkscape:pageopacity="0.0"
     inkscape:pagecheckerboard="0"
     showgrid="false"
     showguides="true"
     inkscape:zoom="0.40484397"
     inkscape:cx="570.59019"
     inkscape:cy="130.91463"
     inkscape:window-width="1920"
     inkscape:window-height="1011"
     inkscape:window-x="1920"
     inkscape:window-y="32"
     inkscape:window-maximized="1"
     inkscape:current-layer="svg12" />
  <g
     fill="#ff7113"
     id="g10"
     style="fill-opacity:1;fill:url(#linearGradient851)">
    <path
       d="   M 0.00 0.00   L 275.81 0.00   Q 295.14 1.14 314.57 0.94   A 0.44 0.43 89.4 0 1 315.01 1.38   Q 314.88 42.63 315.50 83.94   C 316.32 138.62 315.99 193.32 316.02 248.02   C 316.02 254.23 316.45 262.66 318.42 268.22   C 321.32 276.37 328.10 285.51 337.01 287.45   Q 350.16 290.33 364.49 289.15   C 388.01 287.21 393.00 268.12 393.00 248.00   C 392.99 228.07 393.61 208.16 393.89 188.25   Q 394.73 127.93 396.03 67.62   C 396.06 66.07 395.45 64.63 397.81 64.59   Q 446.25 63.68 494.68 64.30   C 522.17 64.66 551.78 70.50 571.81 90.94   C 585.15 104.56 594.99 118.66 596.51 138.24   Q 598.00 157.39 596.93 176.57   C 595.22 207.04 577.08 225.72 551.52 239.91   A 0.50 0.49 -33.1 0 0 551.36 240.64   L 630.49 348.02   A 1.03 1.03 0.0 0 1 629.71 349.66   C 599.46 350.86 568.78 350.00 538.45 350.00   A 1.21 1.19 72.6 0 1 537.46 349.47   L 473.56 255.26   A 0.41 0.40 30.3 0 0 472.82 255.45   Q 471.96 266.15 470.75 276.72   Q 467.88 301.94 454.43 323.06   C 445.74 336.71 431.71 344.89 417.50 352.54   C 407.41 357.98 398.10 360.87 387.25 361.74   C 365.35 363.48 342.12 364.12 318.12 360.83   C 298.67 358.16 282.31 351.06 267.71 338.16   C 256.68 328.42 249.39 316.32 243.25 302.72   Q 234.05 282.35 234.69 260.95   Q 234.97 251.67 234.97 251.55   Q 235.34 161.29 234.25 70.94   A 0.96 0.95 -0.3 0 0 233.29 70.00   L 154.25 70.00   A 2.25 2.25 0.0 0 0 152.00 72.25   L 152.00 358.50   A 0.50 0.50 0.0 0 1 151.50 359.00   L 70.50 359.00   A 0.50 0.50 0.0 0 1 70.00 358.50   L 70.00 70.45   A 0.46 0.45 0.0 0 0 69.54 70.00   L 0.00 69.74   L 0.00 0.00   Z   M 515.56 185.56   C 523.68 174.78 525.01 161.07 521.71 148.31   C 516.80 129.34 491.84 132.85 477.68 133.04   A 0.69 0.69 0.0 0 0 477.00 133.73   L 477.00 190.74   A 1.14 1.13 -89.0 0 0 478.09 191.88   Q 491.08 192.39 503.93 191.33   C 509.39 190.88 512.42 189.74 515.56 185.56   Z"
       id="path2"
       style="fill-opacity:1;fill:url(#linearGradient851)" />
    <path
       d="   M 1602.00 64.49   L 1602.00 349.31   L 1528.56 349.44   A 1.43 1.43 0.0 0 1 1527.67 349.13   Q 1526.06 347.85 1525.29 346.71   Q 1468.15 262.11 1411.28 177.82   A 0.52 0.51 -61.5 0 0 1410.34 178.10   C 1410.05 189.86 1410.48 204.28 1410.48 213.31   Q 1410.53 280.46 1410.49 347.31   A 2.21 2.20 -0.0 0 1 1408.28 349.51   L 1334.24 349.48   A 2.24 2.24 0.0 0 1 1332.00 347.24   L 1332.00 289.50   A 0.50 0.50 0.0 0 0 1331.50 289.00   L 1222.03 289.00   A 1.36 1.36 0.0 0 0 1221.19 289.29   Q 1220.15 290.09 1219.67 290.67   C 1206.83 306.03 1194.14 321.91 1179.11 335.20   C 1165.70 347.04 1147.72 355.49 1131.28 362.25   C 1121.29 366.37 1108.88 367.85 1098.19 369.00   L 1072.44 369.00   C 1036.09 364.48 1002.89 347.14 983.18 315.53   C 964.82 286.11 955.47 253.62 954.00 219.09   C 952.50 183.97 959.78 144.98 981.33 116.33   C 999.01 92.82 1024.24 72.56 1052.93 62.18   Q 1054.09 61.76 1054.93 62.02   A 1.65 1.65 0.0 0 0 1055.87 62.02   C 1073.30 56.74 1090.84 55.97 1108.93 55.86   Q 1123.62 55.78 1137.43 60.21   C 1144.66 62.53 1152.32 66.75 1159.59 70.47   A 1.01 1.01 0.0 0 1 1160.14 71.37   L 1160.65 153.79   A 1.28 1.28 0.0 0 1 1158.53 154.77   Q 1144.93 142.83 1129.21 134.02   C 1121.42 129.65 1109.05 129.21 1098.26 129.57   C 1040.01 131.50 1027.03 194.76 1037.73 239.77   C 1042.22 258.69 1066.08 280.85 1084.28 286.54   C 1113.92 295.82 1137.62 271.41 1155.62 251.62   C 1179.86 224.97 1201.69 196.10 1223.34 167.33   Q 1261.94 116.05 1300.44 64.68   C 1301.92 62.70 1304.53 63.75 1306.15 63.75   Q 1359.19 63.75 1411.88 63.75   A 0.96 0.95 -16.3 0 1 1412.68 64.18   L 1526.05 235.45   A 0.51 0.51 0.0 0 0 1526.99 235.17   C 1527.01 213.84 1526.73 192.39 1527.24 171.01   Q 1528.51 117.88 1527.86 64.60   A 0.80 0.79 -0.4 0 1 1528.66 63.80   L 1602.00 64.49   Z   M 1331.30 140.88   Q 1295.82 189.02 1260.52 237.45   Q 1260.12 238.00 1260.80 238.00   L 1331.43 238.00   A 0.76 0.76 0.0 0 0 1332.19 237.25   L 1332.79 140.46   A 0.52 0.51 -9.5 0 0 1332.10 139.97   C 1331.44 140.22 1331.62 140.44 1331.30 140.88   Z"
       id="path4"
       style="fill-opacity:1;fill:url(#linearGradient851)" />
    <path
       d="   M 711.80 252.46   A 1.07 1.01 84.4 0 0 711.00 253.50   L 711.00 348.22   A 1.28 1.28 0.0 0 1 709.72 349.50   L 638.53 349.50   A 1.53 1.53 0.0 0 1 637.00 347.97   L 637.00 63.46   A 0.46 0.45 90.0 0 1 637.45 63.00   Q 678.31 62.99 719.24 63.00   C 735.71 63.01 749.58 63.71 764.43 66.33   C 786.36 70.21 803.52 79.22 817.81 97.21   C 828.09 110.14 830.76 121.28 832.17 138.37   Q 833.85 158.82 831.07 179.16   C 829.24 192.54 825.88 200.49 818.19 210.94   C 810.03 222.05 799.13 232.19 785.73 236.44   A 0.51 0.50 -26.2 0 0 785.47 237.20   L 859.36 347.42   Q 860.75 349.49 858.25 349.49   Q 816.96 349.51 774.25 349.49   C 773.23 349.49 772.14 348.44 771.55 347.49   C 766.47 339.39 712.17 252.38 711.80 252.46   Z   M 738.55 190.53   C 749.06 188.69 756.73 180.83 758.51 170.25   C 760.90 156.02 759.17 138.58 744.46 131.73   C 736.05 127.81 721.54 128.71 711.55 129.13   A 0.58 0.57 89.0 0 0 711.00 129.71   L 711.00 190.72   A 1.02 1.01 2.1 0 0 711.94 191.73   Q 725.38 192.83 738.55 190.53   Z"
       id="path6"
       style="fill-opacity:1;fill:url(#linearGradient851)" />
    <path
       d="   M 940.76 349.49   L 865.28 349.51   A 1.29 1.28 -90.0 0 1 864.00 348.22   L 864.00 63.50   A 0.50 0.50 0.0 0 1 864.50 63.00   L 940.55 63.00   A 0.45 0.45 0.0 0 1 941.00 63.45   Q 941.00 152.44 941.00 241.51   Q 941.00 250.82 941.23 261.49   Q 942.18 304.99 942.00 348.25   A 1.24 1.24 0.0 0 1 940.76 349.49   Z"
       id="path8"
       style="fill-opacity:1;fill:url(#linearGradient851)" />
  </g>
</svg>
